Luxtrader/img/icons/header/palm.svg

<svg id="Слой_1" data-name="Слой 1" xmlns="http://www.w3.org/2000/svg" xmlns:xlink="http://www.w3.org/1999/xlink" viewBox="0 0 11 14"><defs><clipPath id="clip-path"><path class="cls-1" d="M9 9l-3 4c-.4.48-1.6-1.52-2-2a3.9 3.9 0 010-3l3.23-.36C7.63 7.16 9.6 5.52 10 6s-.6 2.53-1 3zm-2.16-.06a.76.76 0 01-.68-.81V2.44a.75.75 0 01.68-.81.75.75 0 01.68.81v5.69a.76.76 0 01-.68.81zm-2 0a.76.76 0 01-.69-.81V.81A.76.76 0 014.79 0a.75.75 0 01.68.81v7.32a.76.76 0 01-.68.81zm-2 0a.76.76 0 01-.69-.81v-6.5a.77.77 0 01.59-.82.77.77 0 01.68.82v6.5a.76.76 0 01-.68.81zm-2.06 0A.76.76 0 010 8.13V3.25a.76.76 0 01.68-.81.76.76 0 01.69.81v4.88a.76.76 0 01-.69.81zM4.1 13C2.22 13 0 10.37 0 8.13S1.53 6.5 3.42 6.5s4.1-.62 4.1 1.63S6 13 4.1 13z"/></clipPath><clipPath id="clip-path-2"><path class="cls-1" d="M0 0h11v14H0z"/></clipPath><style>.cls-1{fill:none}</style></defs><g clip-path="url(#clip-path)"><g clip-path="url(#clip-path-2)"><image width="11" height="14" xlink:href="data:image/png;base64,iVBORw0KGgoAAAANSUhEUgAAAAsAAAAOCAYAAAD5YeaVAAAACXBIWXMAAAsSAAALEgHS3X78AAAAHElEQVQoU2PcPSftPwORgImQAmQwqhgZjCpGBgDYywLYuR7mOwAAAABJRU5ErkJggg=="/></g></g></svg>

<svg id="Слой_1" data-name="Слой 1" xmlns="http://www.w3.org/2000/svg" xmlns:xlink="http://www.w3.org/1999/xlink" viewBox="0 0 11 14"><defs><style>.cls-1{fill:none;}.cls-2{clip-path:url(#clip-path);}.cls-3{clip-path:url(#clip-path-2);}</style><clipPath id="clip-path"><path class="cls-1" d="M9,9,6,13c-.4.48-1.6-1.52-2-2A3.9,3.9,0,0,1,4,8l3.23-.36C7.63,7.16,9.6,5.52,10,6S9.4,8.53,9,9ZM6.84,8.94a.76.76,0,0,1-.68-.81V2.44a.75.75,0,0,1,.68-.81.75.75,0,0,1,.68.81V8.13A.76.76,0,0,1,6.84,8.94Zm-2,0a.76.76,0,0,1-.69-.81V.81A.76.76,0,0,1,4.79,0a.75.75,0,0,1,.68.81V8.13A.76.76,0,0,1,4.79,8.94Zm-2,0a.76.76,0,0,1-.69-.81V1.63A.77.77,0,0,1,2.74.81a.77.77,0,0,1,.68.82v6.5A.76.76,0,0,1,2.74,8.94Zm-2.06,0A.76.76,0,0,1,0,8.13V3.25a.76.76,0,0,1,.68-.81.76.76,0,0,1,.69.81V8.13A.76.76,0,0,1,.68,8.94ZM4.1,13C2.22,13,0,10.37,0,8.13S1.53,6.5,3.42,6.5s4.1-.62,4.1,1.63S6,13,4.1,13Z"/></clipPath><clipPath id="clip-path-2"><rect class="cls-1" width="11" height="14"/></clipPath></defs><g class="cls-2"><g class="cls-3"><image width="11" height="14" xlink:href="data:image/png;base64,iVBORw0KGgoAAAANSUhEUgAAAAsAAAAOCAYAAAD5YeaVAAAACXBIWXMAAAsSAAALEgHS3X78AAAAHElEQVQoU2PcPSftPwORgImQAmQwqhgZjCpGBgDYywLYuR7mOwAAAABJRU5ErkJggg=="/></g></g></svg>
